img/svg/card.svg

<svg width="22" height="16" viewBox="0 0 22 16" fill="none" xmlns="http://www.w3.org/2000/svg">
    <g clip-path="url(#clip0_1_5)">
        <path
            d="M-26 -42H294V58C294 61.3137 291.314 64 288 64H-20C-23.3137 64 -26 61.3137 -26 58V-42Z"
            fill="#18191C" />
        <path
            d="M1.59954 5.19985H19.5995M5.19954 9.39985H8.19954M3.4 1H17.7996C19.1251 1 20.1996 2.07368 20.1996 3.39913L20.1999 12.401C20.1999 13.7265 19.1254 14.8 17.7999 14.8L3.40023 14.7998C2.07479 14.7998 1.00029 13.7253 1.00026 12.3999L1 3.40007C0.999962 2.07456 2.07449 1 3.4 1Z"
            stroke="#58D068" stroke-width="2" stroke-linecap="round" stroke-linejoin="round" />
    </g>
    <defs>
        <clipPath id="clip0_1_5">
            <rect width="1920" height="2669" fill="white" transform="translate(-258 -102)" />
        </clipPath>
    </defs>
</svg>

<svg width="22" height="16" viewBox="0 0 22 16" fill="none" xmlns="http://www.w3.org/2000/svg"><g clip-path="url(#clip0_1_5)"><path d="M-26-42h320V58a6 6 0 01-6 6H-20a6 6 0 01-6-6V-42z" fill="#18191C"/><path d="M1.6 5.2h18M5.2 9.4h3M3.4 1h14.4a2.4 2.4 0 012.4 2.4v9a2.4 2.4 0 01-2.4 2.399H3.4A2.4 2.4 0 011 12.4v-9A2.4 2.4 0 013.4 1z" stroke="#58D068" stroke-width="2" stroke-linecap="round" stroke-linejoin="round"/></g><defs><clipPath id="clip0_1_5"><path fill="#fff" transform="translate(-258 -102)" d="M0 0h1920v2669H0z"/></clipPath></defs></svg>
